img/linkedin.svg

<svg xmlns="http://www.w3.org/2000/svg" viewBox="0 0 70 70" enable-background="new 0 0 70 70"><style type="text/css">.st0{fill:#000820;}</style><path class="st0" d="M35.1 2.3c-18.1 0-32.8 14.6-32.8 32.7s14.7 32.7 32.8 32.7c18.1 0 32.8-14.6 32.8-32.7s-14.7-32.7-32.8-32.7zm-9 48.2h-7v-21h7v21zm-3.5-23c-2.4 0-3.9-1.8-3.9-3.7 0-2 1.5-3.6 3.9-3.6s3.8 1.7 3.9 3.7c0 1.9-1.5 3.6-3.9 3.6zm28.5 23h-7v-11c0-2.8-1-4.6-3.5-4.6-1.9 0-2.9 1.3-3.4 2.5-.2.4-.1 1.1-.1 1.7v11.5h-7.2s.1-19 0-21h7.2v3.3c0-1.4 2.5-3.4 6.1-3.4 4.5 0 7.9 2.9 7.9 9.3v11.7z"/></svg>

<?xml version="1.0" encoding="utf-8"?>
<!-- Generator: Adobe Illustrator 19.1.0, SVG Export Plug-In . SVG Version: 6.00 Build 0)  -->
<svg version="1.1" id="Layer_1" xmlns="http://www.w3.org/2000/svg" xmlns:xlink="http://www.w3.org/1999/xlink" x="0px" y="0px"
	 viewBox="0 0 70 70" style="enable-background:new 0 0 70 70;" xml:space="preserve">
<style type="text/css">
	.st0{fill:#000820;}
</style>
<path class="st0" d="M35.1,2.3C17,2.3,2.3,16.9,2.3,35c0,18.1,14.7,32.7,32.8,32.7c18.1,0,32.8-14.6,32.8-32.7
	C67.9,16.9,53.2,2.3,35.1,2.3z M26.1,50.5h-7v-21h7V50.5z M22.6,27.5L22.6,27.5c-2.4,0-3.9-1.8-3.9-3.7c0-2,1.5-3.6,3.9-3.6
	c2.4,0,3.8,1.7,3.9,3.7C26.5,25.8,25,27.5,22.6,27.5z M51.1,50.5h-7v-11c0-2.8-1-4.6-3.5-4.6c-1.9,0-2.9,1.3-3.4,2.5
	c-0.2,0.4-0.1,1.1-0.1,1.7v11.5h-7.2c0,0,0.1-19,0-21h7.2v3.3c0-1.4,2.5-3.4,6.1-3.4c4.5,0,7.9,2.9,7.9,9.3V50.5z"/>
</svg>
